X: 124003
T: The BOB OF FETTERCAIRN
Q: "Reel."
R: Reel.
%R: reel
B: James Kerr "Merry Melodies" v.1 p.24 s.0 #3
Z: 2017 John Chambers <jc:trillian.mit.edu>
M: C
L: 1/8
K: D
(Bc) !segno!||\
dBGB dBGB | dBdg f2(df) |\
e^cAc ecAc | edef gage |\
dBGB dBGB | dBdg f2(df) |\
afge fdgB | AABd e2(eg) |]
dgBg dgBg | dgBg f2(df) |\
ea^ca eaca | edef gage |\
dgBg dgBg | dgBg f2(df) |\
afge fdgB | AABd e2(eg) |]

%%sep 1 1 500
%%sep 1 1 500

